svgs/light/chess-board.svg

<svg xmlns="http://www.w3.org/2000/svg" viewBox="0 0 448 512"><!-- Font Awesome Pro 6.0.0-alpha2 by @fontawesome - https://fontawesome.com License - https://fontawesome.com/license (Commercial License) --><path d="M352 112H96C87.164 112 80 119.162 80 128V384C80 392.836 87.164 400 96 400H352C360.836 400 368 392.836 368 384V128C368 119.162 360.836 112 352 112ZM144 368H112V336H144V368ZM144 304H112V272H144V304ZM144 240H112V208H144V240ZM144 176H112V144H144V176ZM208 368H176V336H208V368ZM208 304H176V272H208V304ZM208 240H176V208H208V240ZM208 176H176V144H208V176ZM272 368H240V336H272V368ZM272 304H240V272H272V304ZM272 240H240V208H272V240ZM272 176H240V144H272V176ZM336 368H304V336H336V368ZM336 304H304V272H336V304ZM336 240H304V208H336V240ZM336 176H304V144H336V176ZM384 32H64C28.654 32 0 60.652 0 96V416C0 451.348 28.654 480 64 480H384C419.346 480 448 451.348 448 416V96C448 60.652 419.346 32 384 32ZM416 416C416 433.645 401.645 448 384 448H64C46.355 448 32 433.645 32 416V96C32 78.355 46.355 64 64 64H384C401.645 64 416 78.355 416 96V416Z"/></svg>

<svg xmlns="http://www.w3.org/2000/svg" viewBox="0 0 448 512"><!--! Font Awesome Pro 6.3.0 by @fontawesome - https://fontawesome.com License - https://fontawesome.com/license (Commercial License) Copyright 2023 Fonticons, Inc. --><path d="M352 112H96C87.16 112 80 119.2 80 128v256c0 8.836 7.164 16 16 16h256c8.836 0 16-7.164 16-16V128C368 119.2 360.8 112 352 112zM144 368h-32v-32h32V368zM144 304h-32v-32h32V304zM144 240h-32v-32h32V240zM144 176h-32v-32h32V176zM208 368h-32v-32h32V368zM208 304h-32v-32h32V304zM208 240h-32v-32h32V240zM208 176h-32v-32h32V176zM272 368h-32v-32h32V368zM272 304h-32v-32h32V304zM272 240h-32v-32h32V240zM272 176h-32v-32h32V176zM336 368h-32v-32h32V368zM336 304h-32v-32h32V304zM336 240h-32v-32h32V240zM336 176h-32v-32h32V176zM384 32H64C28.65 32 0 60.65 0 96v320c0 35.35 28.65 64 64 64h320c35.35 0 64-28.65 64-64V96C448 60.65 419.3 32 384 32zM416 416c0 17.64-14.36 32-32 32H64c-17.64 0-32-14.36-32-32V96c0-17.64 14.36-32 32-32h320c17.64 0 32 14.36 32 32V416z"/></svg>
